ui/StatusQ/src/assets/img/icons/expand.svg

<svg fill="none" height="24" viewBox="0 0 24 24" width="24" xmlns="http://www.w3.org/2000/svg"><g fill="#939ba1"><path d="m3.21016 14.2426c0-.4142.33578-.75.75-.75.41421 0 .75.3358.75.75l-.00001 2.6391c0 .4455.53858.6686.85356.3536l4.17982-4.1798c.29287-.2929.76777-.2929 1.06067 0s.2929.7677 0 1.0606l-4.17983 4.1798c-.31498.315-.0919.8536.35355.8536h2.63909c.41419 0 .74999.3358.74999.75s-.3358.75-.74999.75h-5.65685c-.41422 0-.75-.3358-.75-.75z"/><path d="m13.9602 3.35051c-.4143 0-.75.33578-.75.75 0 .41421.3357.75.75.75h2.639c.4455 0 .6686.53857.3536.85355l-4.1798 4.17982c-.2929.29292-.2929.76782 0 1.06062.2929.2929.7677.2929 1.0606 0l4.1799-4.17978c.3149-.31498.8535-.0919.8535.35356v2.63908c0 .41424.3358.75004.75.75004s.75-.3358.75-.75004v-5.65685c0-.41422-.3358-.75-.75-.75z"/></g></svg>

<svg width="24" height="24" viewBox="0 0 24 24" fill="none" xmlns="http://www.w3.org/2000/svg">
<g id="Arrow / Expand">
<g id="Icon">
<path d="M3.21016 14.2426C3.21016 13.8284 3.54594 13.4926 3.96016 13.4926C4.37437 13.4926 4.71016 13.8284 4.71016 14.2426L4.71015 16.8817C4.71015 17.3272 5.24873 17.5503 5.56371 17.2353L9.74353 13.0555C10.0364 12.7626 10.5113 12.7626 10.8042 13.0555C11.0971 13.3484 11.0971 13.8232 10.8042 14.1161L6.62437 18.2959C6.30939 18.6109 6.53247 19.1495 6.97792 19.1495L9.61701 19.1495C10.0312 19.1495 10.367 19.4853 10.367 19.8995C10.367 20.3137 10.0312 20.6495 9.61701 20.6495L3.96016 20.6495C3.54594 20.6495 3.21016 20.3137 3.21016 19.8995L3.21016 14.2426Z" fill="#939BA1"/>
<path d="M13.9602 3.35051C13.5459 3.35051 13.2102 3.68629 13.2102 4.10051C13.2102 4.51472 13.5459 4.85051 13.9602 4.85051L16.5992 4.85051C17.0447 4.85051 17.2678 5.38908 16.9528 5.70406L12.773 9.88388C12.4801 10.1768 12.4801 10.6517 12.773 10.9445C13.0659 11.2374 13.5407 11.2374 13.8336 10.9445L18.0135 6.76472C18.3284 6.44974 18.867 6.67282 18.867 7.11828L18.867 9.75736C18.867 10.1716 19.2028 10.5074 19.617 10.5074C20.0312 10.5074 20.367 10.1716 20.367 9.75736L20.367 4.10051C20.367 3.68629 20.0312 3.35051 19.617 3.35051L13.9602 3.35051Z" fill="#939BA1"/>
</g>
</g>
</svg>
